!!!OTL: Fridericus Rex.
!!!OTL-incipit: FRIDERICUS REX UNSER KOENIG
!!!COM: G. W. Fink
!!!ARE: Europa, Mitteleuropa, Deutschland
!!!SCT: F0565
!!!TXL: @@DE
!!!YEM: Copyright 1995, estate of Helmut Schaffrath.
**kern	**text
*ICvox	*
*clefG2	*
*M4/4	*
*met(c)	*
*k[f#c#g#]	*
*A:	*
!LO:TX:a:t=In etwas freier Taktbewegung.	!
!LO:TX:a:t=P:only the highest voice encoded:problem	!
{16e	1._Fri-
16e	-de
8e	ri-
8e	-cus
=1	=1
[>4a	Rex
8a]	un-
8a	-ſer
4a	Kö-
8a	-nig
8b/	und
=2	=2
4.cc#	Herr,
8r	.
8r}	.
{8b/	der_rief
8cc#/	ſei_ne
8dd/	Sol-
=3	=3
4ee/	-da-
8ee/	-ten
8ee/	all-
(>8ee/	-ſammt
8dd/)	.
(>8dd	in's
8cc#)	Ge-
=4	=4
4b/	-wehr,
8r}	.
{8cc#/	ʒwei
8b/	hundert
8a	.
8b/	Ba-
8cc#/	-tail-
=5	=5
4dd/	-lons_und
8cc#/	an
8b/	die
4cc#/	tauſend
(8cc#/	Schwa-
8dd/)	.
=6	=6
[8ee	-dro-
4ee;]}	-nen,
{8ee/	und
(>8dd/	je-
8cc#/)	-der
(8dd	Grena-
8ee)	.
=7	=7
4cc#/	-dier
(>8ee/	kriegte
8dd/)	.
4cc#/	ſech-
(>8b/	-ʒig
8cc#/)	Pa-
=8	=8
[>8a	-tro-
4a;]	-nen.
8r	.
8r}	.
==	==
!!!AGN: Soldaten -, Kriegs - Lied
!!!ONB: ESAC (Essen Associative Code) Database: FINK
!!!AMT: simple quadruple
!!!AIN: vox
!!!EED: Helmut Schaffrath
!!!EEV: 1.0
!!Text: W. Alexis
!!!RDF**kern: > = above
!!!GTL: Soldaten- und Jaegerlieder
!!!source: Musikalischer Hausschatz der Deutschen. Eine Sammlung von über 1000 Liedern und Gesängen mit Singstimmen und Klavierbegleitung. Leipzig, Litterarisches Verlags-Haus.
!!!page: 366
!!!URL-scan: https://www.digitale-sammlungen.de/en/view/bsb11144622?page=333
!!!ENC: Anna Maria Matuszewska
!!!EEV: 2024/08/02
*-	*-
